X: 39984
T: Three Eeasteyryn Boghtey
R: reel
M: 4/4
K: Edorian
B2|e2 e2 de f2|e3c dc BA|GA B2 AG F2|E5 B2|
e2 f2 g2 f2|e3d B2 B=c|d2 d2 e2 =cA|B5 B2|
e2 f2 g2 f2|e3d B2 B=c|d2 d2 e2 =cA|B5 E2|
A2 A2 AG A2|Bc d2 e2 EF|GA B2 AG F2|E5||

